dist/images/volume-2.svg

<svg width="20" height="20" viewBox="0 0 20 20" fill="none" xmlns="http://www.w3.org/2000/svg">
<path d="M5.00008 8.00008C5.11362 8.00008 5.22377 7.96144 5.31243 7.89052L8.66675 5.20706V14.7931L5.31243 12.1096C5.22377 12.0387 5.11362 12.0001 5.00008 12.0001H2.16675V8.00008H5.00008Z" stroke="#050835" stroke-linecap="round" stroke-linejoin="round"/>
<mask id="path-2-inside-1_133_379" fill="white">
<path d="M15.8916 4.1084C17.4539 5.67113 18.3315 7.79036 18.3315 10.0001C18.3315 12.2098 17.4539 14.329 15.8916 15.8917M12.95 7.05007C13.7311 7.83143 14.1699 8.89105 14.1699 9.9959C14.1699 11.1007 13.7311 12.1604 12.95 12.9417"/>
</mask>
<path d="M16.5988 3.4014C16.2084 3.01082 15.5752 3.01072 15.1846 3.40118C14.794 3.79165 14.7939 4.42482 15.1844 4.8154L16.5988 3.4014ZM15.1844 15.1847C14.7939 15.5753 14.794 16.2085 15.1846 16.5989C15.5752 16.9894 16.2084 16.9893 16.5988 16.5987L15.1844 15.1847ZM13.6572 6.34307C13.2667 5.95248 12.6335 5.95239 12.243 6.34285C11.8524 6.73332 11.8523 7.36648 12.2427 7.75707L13.6572 6.34307ZM12.2427 12.2347C11.8523 12.6253 11.8524 13.2585 12.243 13.6489C12.6335 14.0394 13.2667 14.0393 13.6572 13.6487L12.2427 12.2347ZM15.1844 4.8154C16.5592 6.1906 17.3315 8.05553 17.3315 10.0001H19.3315C19.3315 7.5252 18.3486 5.15166 16.5988 3.4014L15.1844 4.8154ZM17.3315 10.0001C17.3315 11.9446 16.5592 13.8095 15.1844 15.1847L16.5988 16.5987C18.3486 14.8485 19.3315 12.4749 19.3315 10.0001H17.3315ZM12.2427 7.75707C12.8364 8.3509 13.1699 9.15621 13.1699 9.9959H15.1699C15.1699 8.62588 14.6258 7.31196 13.6572 6.34307L12.2427 7.75707ZM13.1699 9.9959C13.1699 10.8356 12.8364 11.6409 12.2427 12.2347L13.6572 13.6487C14.6258 12.6798 15.1699 11.3659 15.1699 9.9959H13.1699Z" fill="#050835" mask="url(#path-2-inside-1_133_379)"/>
</svg>

<svg width="20" height="20" fill="none" xmlns="http://www.w3.org/2000/svg"><path d="M5 8a.5.5 0 0 0 .312-.11l3.355-2.683v9.586L5.312 12.11A.5.5 0 0 0 5 12H2.167V8H5Z" stroke="#050835" stroke-linecap="round" stroke-linejoin="round"/><mask id="a" fill="#fff"><path d="M15.892 4.108a8.333 8.333 0 0 1 0 11.784M12.95 7.05a4.167 4.167 0 0 1 0 5.892"/></mask><path d="M16.599 3.401a1 1 0 1 0-1.415 1.414L16.6 3.401Zm-1.415 11.784a1 1 0 1 0 1.415 1.414l-1.415-1.414Zm-1.527-8.842a1 1 0 0 0-1.414 1.414l1.414-1.414Zm-1.414 5.892a1 1 0 0 0 1.414 1.414l-1.414-1.414Zm2.941-7.42A7.333 7.333 0 0 1 17.331 10h2A9.333 9.333 0 0 0 16.6 3.401l-1.415 1.414ZM17.331 10c0 1.945-.772 3.81-2.147 5.185l1.415 1.414A9.333 9.333 0 0 0 19.33 10h-2Zm-5.088-2.243c.593.594.927 1.4.927 2.239h2c0-1.37-.544-2.684-1.513-3.653l-1.414 1.414Zm.927 2.239a3.17 3.17 0 0 1-.927 2.239l1.414 1.414a5.167 5.167 0 0 0 1.513-3.653h-2Z" fill="#050835" mask="url(#a)"/></svg>
